X: 67
T: No_165_In_Her_Canoe.krn
N: Derived from No_165_In_Her_Canoe.krn
%%abc-version 2.0
%%abcx-abcm2ps-target-version 5.9.1 (29 Sep 2008)
%%abc-creator hum2abc beta
%%abcx-conversion-date 2019/03/15 08:29:13
%%humdrum-veritas 361197204
%%humdrum-veritas-data 3316628525
%%linebreak <none>
%%barnumbers 0
L: 1/8
M: 2/4
K: Ab clef=bass
[K:clef=bass][M:2/4]C2C3/E/ | 
E7/E/ | 
B,3B, ||  
[M:3/4]A,B,/C/B,3B, | 
A,3/F,/E,3E, ||  
[M:2/4]B,2E3/B,/ | 
A,/F,/A,- A,B,/A,/ ||  
[M:3/4]F,/E,3/-E,3E, | 
CCB,2(3B,B,B, ||  
[M:2/4]A,3/F,/ E,3/B,/ | 
B,/A,3/ (3F,E,F, | 
E,3E, ||  
[M:3/4]B,2B,3/B,/ (3B,A,C ||  
[M:2/4]B,4 ||  
[M:3/4]E2C/B,3/ (3B,A,B, | 
A,3/F,/E,2(3!accent!B,A,F, ||  
[M:2/4]E,4- | 
E,4 | 
C/B,3/ (3B,A,B, | 
B,3A, | 
E/C3/ (3A,E,F, | 
E,4 |]  



